X:1
T:Title
%%score ( 1 2 ) { 3 | 4 }
L:1/8
M:12/8
K:F
V:1 treble nm="Grand Piano, Soprano"
V:2 treble 
V:3 treble nm="Choir Pad, Peace Through the Blood"
V:4 bass 
V:1
 [CF]2 [CG] [FA]3 [FA]3 [FB]2 [FA] | [EG]2 F [Ec]3 [Fc]3 [Ec]3 | z3 [Fc]3 [CF]2 [CG] [FA]3 | %3
w: By~Anthony~Johnson~Showalter * * * * *|||
 [GB]2 [FA] [EG]6- [EG]2- [EG]/ z/ | [CF]2 [CG] [FA]3 [FA]3 [FB]2 [FA] | %5
w: ||
 [EG]2 F [Ec]3 [Fc]3 [Ec]3 | z3 [Fc]3 F2 [FG] [FA]3 | [EG]2 [EG] F6- F2- F/ z/ | z3 c6- c2- c/ z/ | %9
w: ||||
 z3 d6- d2- d/ z/ | z3 B6- B2- B/ z/ | z3 c6- c2- c/ z/ | z3 [Fc]3 [CF]2 [CG] [FA]3 | %13
w: ||||
 [GB]2 [FA] [EG]6- [EG]2- [EG]/ z/ | z3 c6- c2- c/ z/ | z3 d6- d2- d/ z/ | z3 B6- B2- B/ z/ | %17
w: ||||
 z3 c6- c2- c/ z/ | z3 [Fc]3 F2 [FG] [FA]3 | [EG]2 [EG] F6- F2- F/ z/ |] %20
w: |||
V:2
 x12 | x12 | x12 | x12 | x12 | x12 | x12 | x12 | z3 F3 EFG F3 | ABc F3 FFF F3 | z3 E3 GGF E3 | %11
 GAB F3 FFE F3 | x12 | x12 | z3 F3 EFG F3 | ABc F3 FFF F3 | z3 E3 GGF E3 | GAB F3 FFE F3 | x12 | %19
 x12 |] %20
V:3
 A,2 B, C3 C3 D2 C | B,2 A, G,3 A,3 G,3 | z3 A,3 A,2 B,[K:treble] C3 | C2 C C6- C2- C/ z/ | %4
 A,2 B, C3 C3 D2 C | B,2 A, G,3 A,3 G,3 | z3 A,3 C2 D C3 | B,2 B, A,6- A,2- A,/ z/ | %8
 z3 A,3 G,A,B, A,3 | z3 B,3 B,B,B, B,3 | z3[K:treble] G,3 CCC C3 | z3[K:bass] A,3 CCB, A,3 | %12
 z3 A,3 A,2 B,[K:treble] C3 | C2 C C6- C2- C/ z/ | z3[K:bass] A,3 G,A,B, A,3 | z3 B,3 B,B,B, B,3 | %16
 z3[K:treble] G,3 CCC C3 | z3[K:bass] A,3 CCB, A,3 | z3 A,3 C2 D C3 | B,2 B, A,6- A,2- A,/ z/ |] %20
V:4
 F,2 F, F,3 F,3 F,2 F, | F,2 F, C,3 F,3 C,3 | z3 F,3 F,2 F, F,3 | E,2 F, C,6- C,2- C,/ z/ | %4
 F,2 F, F,3 F,3 F,2 F, | F,2 F, C,3 F,3 C,3 | z3 F,3 A,,2 B,, C,3 | C,2 C, F,6- F,2- F,/ z/ | %8
 z3 F,3 C,C,C, F,3 | z3 B,,3 B,,B,,B,, B,,3 | z3 C,3 E,E,D, C,3 | z3 F,3 A,A,G, F,3 | %12
 z3 F,3 F,2 F, F,3 | E,2 F, C,6- C,2- C,/ z/ | z3 F,3 C,C,C, F,3 | z3 B,,3 B,,B,,B,, B,,3 | %16
 z3 C,3 E,E,D, C,3 | z3 F,3 A,A,G, F,3 | z3 F,3 A,,2 B,, C,3 | C,2 C, F,6- F,2- F,/ z/ |] %20

